X: 352
T:Jefferson and Liberty
T:The Gobby-O
N: page 125
N: heptatonic
R: Jig
M:6/8
L:1/8
K:A minor
B | "Am"c2 A A^GA | E2 A ABc | "G"B2 =G GBc | dBG "Em7"GAB |
"Am"c2 A A^GA | E2 A "Dm"A2 e | "Am"edc "Em7"BAB | "Am"E2 A A2 :|
|: E | "Am"A2 B c2 d | e2 ^f g3 | e2 ^f g2 e | "G"dBG G2 E |
A2 B c2 d | "Am"e^fg "Dm"a3 | "Am"edc "Em7"BAB | "Am"cAA A2 :|
